apps/site/public/mcp/logos/vscode.svg

<svg xmlns="http://www.w3.org/2000/svg" fill="none" viewBox="0 0 48 48" height="48" width="48">
<g clip-path="url(#clip0_6089_38568)">
<path fill="white" d="M43.5134 7.53439L34.8595 3.36771C33.8578 2.88542 32.6608 3.08886 31.8746 3.87498L3.54505 29.7049C2.78306 30.3996 2.78393 31.5993 3.54694 32.293L5.86099 34.3967C6.48478 34.9637 7.42422 35.0055 8.09584 34.496L42.2112 8.61534C43.3558 7.74707 44.9996 8.56339 44.9996 10V9.89953C44.9996 8.89111 44.422 7.97186 43.5134 7.53439Z" opacity="0.48"></path>
<path fill="white" d="M43.5129 40.4656L34.8591 44.6323C33.8574 45.1147 32.6603 44.9111 31.8742 44.125L3.54456 18.2951C2.78257 17.6003 2.78345 16.4007 3.54645 15.707L5.8605 13.6033C6.48429 13.0362 7.42373 12.9945 8.09536 13.504L42.2107 39.3847C43.3553 40.2529 44.9992 39.4366 44.9992 38V38.1005C44.9992 39.1089 44.4215 40.0281 43.5129 40.4656Z" opacity="0.84"></path>
<path fill="white" d="M34.8603 44.6331C33.8583 45.1151 32.6612 44.9112 31.875 44.125C32.8437 45.0937 34.5 44.4076 34.5 43.0377V4.9623C34.5 3.59237 32.8437 2.9063 31.875 3.87499C32.6612 3.08879 33.8583 2.88507 34.8603 3.36693L43.5127 7.5279C44.4218 7.96512 45 8.88471 45 9.89355V38.1066C45 39.1154 44.4218 40.035 43.5126 40.4722L34.8603 44.6331Z"></path>
</g>
<defs>
<clipPath id="clip0_6089_38568">
<rect transform="translate(3 3)" fill="white" height="42" width="42"></rect>
</clipPath>
</defs>
</svg>

<svg xmlns="http://www.w3.org/2000/svg" width="48" height="48" fill="none" viewBox="0 0 48 48"><g fill="#fff" clip-path="url(#a)"><path d="M43.513 7.534 34.86 3.368a2.62 2.62 0 0 0-2.984.507l-28.33 25.83a1.75 1.75 0 0 0 .002 2.588l2.314 2.104a1.75 1.75 0 0 0 2.235.099L42.21 8.616C43.356 7.746 45 8.562 45 10v-.1a2.63 2.63 0 0 0-1.487-2.366" opacity=".48"/><path d="m43.513 40.466-8.654 4.166a2.62 2.62 0 0 1-2.985-.507l-28.33-25.83a1.75 1.75 0 0 1 .002-2.588l2.315-2.104a1.75 1.75 0 0 1 2.234-.099l34.116 25.88c1.144.869 2.788.053 2.788-1.384v.1a2.63 2.63 0 0 1-1.486 2.366" opacity=".84"/><path d="M34.86 44.633a2.62 2.62 0 0 1-2.985-.508c.969.969 2.625.283 2.625-1.087V4.962c0-1.37-1.656-2.056-2.625-1.087a2.62 2.62 0 0 1 2.985-.508l8.653 4.16A2.63 2.63 0 0 1 45 9.895v28.213a2.63 2.63 0 0 1-1.487 2.365z"/></g><defs><clipPath id="a"><path fill="#fff" d="M3 3h42v42H3z"/></clipPath></defs></svg>
